contributed-vectors/cx_file_explorer.svg

<svg width="192" height="192" viewBox="0 0 192 192" fill="none" xmlns="http://www.w3.org/2000/svg">
<path d="M81 55V25H135.5L165.5 55H81Z" fill="#FDF5D9"/>
<path d="M60 55V25H116.5L146.5 55H60Z" fill="#FBE6A1"/>
<path d="M41 55V25H97.5L127.5 55H41Z" fill="#F8C18C"/>
<path d="M23 55V35C23 29.4772 27.4772 25 33 25H78.5L93.5 40H160C165.523 40 170 44.4772 170 50V55H96.5H23Z" fill="#728DBE"/>
<path d="M20.9813 54.5H96.5H172.019C177.91 54.5 182.525 59.5676 181.975 65.4334L173.35 157.433C172.868 162.572 168.555 166.5 163.394 166.5H96.5H29.6063C24.4451 166.5 20.1318 162.572 19.65 157.433L11.025 65.4334C10.4751 59.5676 15.0898 54.5 20.9813 54.5Z" fill="#9ABEFF"/>
<path d="M96 145C114.778 145 130 129.778 130 111C130 92.2223 114.778 77 96 77C77.2223 77 62 92.2223 62 111C62 129.778 77.2223 145 96 145Z" fill="#728DBE"/>
<path d="M83.6041 124.341C88.6755 124.341 93.1077 121.443 95.2812 117.181L89.6557 114.326C88.5477 116.542 86.3316 117.948 83.6041 117.948C79.7259 117.948 76.828 115.093 76.828 111.215C76.828 107.337 79.7259 104.481 83.6041 104.481C86.3316 104.481 88.5477 105.888 89.6557 108.104L95.2812 105.248C93.1077 100.987 88.6755 98.0888 83.6041 98.0888C76.3166 98.0888 70.478 103.97 70.478 111.215C70.478 118.46 76.3166 124.341 83.6041 124.341ZM119.71 124L110.803 110.746L119.113 98.4298H111.698L107.309 105.334L102.919 98.4298H95.5036L103.814 110.746L94.9069 124H102.322L107.309 116.116L112.295 124H119.71Z" fill="white"/>
</svg>

<svg xmlns="http://www.w3.org/2000/svg" width="192" height="192" fill="none"><path fill="#FDF5D9" d="M81 55V25h54.5l30 30H81Z"/><path fill="#FBE6A1" d="M60 55V25h56.5l30 30H60Z"/><path fill="#F8C18C" d="M41 55V25h56.5l30 30H41Z"/><path fill="#728DBE" d="M23 55V35c0-5.523 4.477-10 10-10h45.5l15 15H160c5.523 0 10 4.477 10 10v5H23Z"/><path fill="#9ABEFF" d="M20.981 54.5H172.02c5.891 0 10.506 5.068 9.956 10.933l-8.625 92a10 10 0 0 1-9.956 9.067H29.606a10 10 0 0 1-9.956-9.067l-8.625-92c-.55-5.865 4.065-10.933 9.956-10.933Z"/><path fill="#728DBE" d="M96 145c18.778 0 34-15.222 34-34s-15.222-34-34-34-34 15.222-34 34 15.222 34 34 34Z"/><path fill="#fff" d="M83.604 124.341c5.072 0 9.504-2.898 11.677-7.16l-5.625-2.855c-1.108 2.216-3.324 3.622-6.052 3.622-3.878 0-6.776-2.855-6.776-6.733 0-3.878 2.898-6.734 6.776-6.734 2.728 0 4.944 1.407 6.052 3.623l5.625-2.856c-2.173-4.261-6.606-7.16-11.677-7.16a13.105 13.105 0 0 0-13.126 13.127 13.104 13.104 0 0 0 13.126 13.126ZM119.71 124l-8.907-13.254 8.31-12.316h-7.415l-4.389 6.904-4.39-6.904h-7.415l8.31 12.316L94.907 124h7.415l4.987-7.884 4.986 7.884h7.415Z"/></svg>
